public/images/logo.svg

<svg width="122" height="25" viewBox="0 0 288 55" fill="none" xmlns="http://www.w3.org/2000/svg">
<path d="M61.52 11.68H70.16C71.3333 11.68 72.48 11.8 73.6 12.04C74.72 12.28 75.72 12.68 76.6 13.24C77.48 13.7733 78.1867 14.48 78.72 15.36C79.28 16.24 79.56 17.3333 79.56 18.64C79.56 20.2933 79.1067 21.6667 78.2 22.76C77.32 23.8267 76.12 24.5867 74.6 25.04V25.12C75.5067 25.2 76.3467 25.44 77.12 25.84C77.92 26.2133 78.6 26.7067 79.16 27.32C79.7467 27.9333 80.2 28.6533 80.52 29.48C80.84 30.28 81 31.1467 81 32.08C81 33.6533 80.6667 34.9467 80 35.96C79.36 36.9733 78.5067 37.7867 77.44 38.4C76.4 38.9867 75.2133 39.4 73.88 39.64C72.5733 39.88 71.2667 40 69.96 40H61.52V11.68ZM64.88 23.68H69.52C70.32 23.68 71.0933 23.6267 71.84 23.52C72.6133 23.4133 73.3067 23.2 73.92 22.88C74.5333 22.5333 75.0267 22.0667 75.4 21.48C75.7733 20.8667 75.96 20.0667 75.96 19.08C75.96 18.2 75.7867 17.4933 75.44 16.96C75.0933 16.4 74.6267 15.96 74.04 15.64C73.48 15.32 72.8267 15.1067 72.08 15C71.36 14.8667 70.6267 14.8 69.88 14.8H64.88V23.68ZM64.88 36.88H70.56C71.3867 36.88 72.2 36.8 73 36.64C73.8267 36.4533 74.56 36.1733 75.2 35.8C75.8667 35.4 76.4 34.8933 76.8 34.28C77.2 33.64 77.4 32.8667 77.4 31.96C77.4 30.9733 77.2 30.1467 76.8 29.48C76.4267 28.8133 75.92 28.28 75.28 27.88C74.6667 27.48 73.9467 27.2 73.12 27.04C72.32 26.88 71.4933 26.8 70.64 26.8H64.88V36.88ZM102.875 36.6C101.755 38.04 100.529 39.0533 99.1953 39.64C97.862 40.2 96.3153 40.48 94.5553 40.48C93.0886 40.48 91.7686 40.2267 90.5953 39.72C89.422 39.1867 88.422 38.48 87.5953 37.6C86.7953 36.72 86.1686 35.68 85.7153 34.48C85.2886 33.28 85.0753 32 85.0753 30.64C85.0753 29.2 85.3153 27.88 85.7953 26.68C86.2753 25.4533 86.942 24.4133 87.7953 23.56C88.6486 22.68 89.662 22 90.8353 21.52C92.0086 21.04 93.2886 20.8 94.6753 20.8C95.982 20.8 97.182 21.0267 98.2753 21.48C99.3686 21.9067 100.302 22.5467 101.075 23.4C101.875 24.2267 102.489 25.2533 102.915 26.48C103.342 27.68 103.555 29.0533 103.555 30.6V31.6H88.4353C88.4886 32.4 88.6753 33.1733 88.9953 33.92C89.342 34.64 89.782 35.28 90.3153 35.84C90.8486 36.3733 91.4753 36.8 92.1953 37.12C92.9153 37.44 93.702 37.6 94.5553 37.6C95.9153 37.6 97.062 37.36 97.9953 36.88C98.9286 36.4 99.7686 35.6933 100.515 34.76L102.875 36.6ZM100.195 28.96C100.142 27.36 99.622 26.08 98.6353 25.12C97.6486 24.16 96.2886 23.68 94.5553 23.68C92.822 23.68 91.422 24.16 90.3553 25.12C89.2886 26.08 88.6486 27.36 88.4353 28.96H100.195ZM125.102 36.6C123.982 38.04 122.755 39.0533 121.422 39.64C120.089 40.2 118.542 40.48 116.782 40.48C115.315 40.48 113.995 40.2267 112.822 39.72C111.649 39.1867 110.649 38.48 109.822 37.6C109.022 36.72 108.395 35.68 107.942 34.48C107.515 33.28 107.302 32 107.302 30.64C107.302 29.2 107.542 27.88 108.022 26.68C108.502 25.4533 109.169 24.4133 110.022 23.56C110.875 22.68 111.889 22 113.062 21.52C114.235 21.04 115.515 20.8 116.902 20.8C118.209 20.8 119.409 21.0267 120.502 21.48C121.595 21.9067 122.529 22.5467 123.302 23.4C124.102 24.2267 124.715 25.2533 125.142 26.48C125.569 27.68 125.782 29.0533 125.782 30.6V31.6H110.662C110.715 32.4 110.902 33.1733 111.222 33.92C111.569 34.64 112.009 35.28 112.542 35.84C113.075 36.3733 113.702 36.8 114.422 37.12C115.142 37.44 115.929 37.6 116.782 37.6C118.142 37.6 119.289 37.36 120.222 36.88C121.155 36.4 121.995 35.6933 122.742 34.76L125.102 36.6ZM122.422 28.96C122.369 27.36 121.849 26.08 120.862 25.12C119.875 24.16 118.515 23.68 116.782 23.68C115.049 23.68 113.649 24.16 112.582 25.12C111.515 26.08 110.875 27.36 110.662 28.96H122.422Z" fill="#2E3E77"/>
<path d="M144.608 16.68C144.048 15.7733 143.302 15.12 142.368 14.72C141.435 14.2933 140.462 14.08 139.448 14.08C138.702 14.08 137.968 14.1733 137.248 14.36C136.528 14.5467 135.875 14.8267 135.288 15.2C134.728 15.5733 134.275 16.0667 133.928 16.68C133.582 17.2933 133.408 18.0133 133.408 18.84C133.408 19.48 133.502 20.0533 133.688 20.56C133.902 21.04 134.235 21.48 134.688 21.88C135.142 22.28 135.755 22.6533 136.528 23C137.302 23.3467 138.248 23.6933 139.368 24.04C140.462 24.3867 141.515 24.76 142.528 25.16C143.568 25.56 144.475 26.0667 145.248 26.68C146.048 27.2933 146.675 28.0667 147.128 29C147.608 29.9067 147.848 31.0533 147.848 32.44C147.848 33.8533 147.568 35.08 147.008 36.12C146.448 37.16 145.702 38.0267 144.768 38.72C143.862 39.3867 142.808 39.88 141.608 40.2C140.408 40.5467 139.168 40.72 137.888 40.72C137.062 40.72 136.235 40.64 135.408 40.48C134.582 40.3467 133.782 40.1333 133.008 39.84C132.262 39.52 131.555 39.12 130.888 38.64C130.222 38.1333 129.648 37.52 129.168 36.8L132.048 34.44C132.662 35.48 133.515 36.2667 134.608 36.8C135.702 37.3333 136.862 37.6 138.088 37.6C138.808 37.6 139.528 37.4933 140.248 37.28C140.995 37.0667 141.662 36.76 142.248 36.36C142.835 35.9333 143.315 35.4133 143.688 34.8C144.062 34.1867 144.248 33.48 144.248 32.68C144.248 31.8 144.102 31.0933 143.808 30.56C143.515 30 143.062 29.52 142.448 29.12C141.835 28.72 141.062 28.36 140.128 28.04C139.195 27.72 138.102 27.3467 136.848 26.92C135.835 26.6 134.902 26.24 134.048 25.84C133.195 25.4133 132.448 24.9067 131.808 24.32C131.195 23.7067 130.702 22.9867 130.328 22.16C129.982 21.3067 129.808 20.2933 129.808 19.12C129.808 17.76 130.075 16.5733 130.608 15.56C131.142 14.5467 131.862 13.7067 132.768 13.04C133.675 12.3467 134.702 11.8267 135.848 11.48C136.995 11.1333 138.195 10.96 139.448 10.96C141.048 10.96 142.502 11.2133 143.808 11.72C145.142 12.2 146.328 13.0533 147.368 14.28L144.608 16.68ZM166.155 25.96C165.488 25.16 164.768 24.5867 163.995 24.24C163.222 23.8667 162.368 23.68 161.435 23.68C160.395 23.68 159.475 23.8667 158.675 24.24C157.875 24.5867 157.208 25.08 156.675 25.72C156.168 26.36 155.782 27.1067 155.515 27.96C155.248 28.7867 155.115 29.68 155.115 30.64C155.115 31.6 155.262 32.5067 155.555 33.36C155.875 34.1867 156.302 34.92 156.835 35.56C157.395 36.2 158.062 36.7067 158.835 37.08C159.608 37.4267 160.475 37.6 161.435 37.6C163.488 37.6 165.075 36.8267 166.195 35.28L168.515 37.48C167.608 38.52 166.542 39.28 165.315 39.76C164.088 40.24 162.795 40.48 161.435 40.48C159.995 40.48 158.675 40.24 157.475 39.76C156.275 39.28 155.248 38.6 154.395 37.72C153.568 36.84 152.915 35.8 152.435 34.6C151.982 33.4 151.755 32.08 151.755 30.64C151.755 29.2267 151.982 27.92 152.435 26.72C152.915 25.52 153.582 24.48 154.435 23.6C155.288 22.72 156.302 22.04 157.475 21.56C158.675 21.0533 159.995 20.8 161.435 20.8C162.822 20.8 164.128 21.04 165.355 21.52C166.608 22 167.702 22.7467 168.635 23.76L166.155 25.96ZM172.412 21.28H175.532V40H172.412V21.28ZM171.692 13.96C171.692 13.3467 171.905 12.8133 172.332 12.36C172.785 11.9067 173.332 11.68 173.972 11.68C174.612 11.68 175.145 11.9067 175.572 12.36C176.025 12.8133 176.252 13.3467 176.252 13.96C176.252 14.6267 176.039 15.1733 175.612 15.6C175.185 16.0267 174.639 16.24 173.972 16.24C173.305 16.24 172.759 16.0267 172.332 15.6C171.905 15.1733 171.692 14.6267 171.692 13.96ZM198.461 36.6C197.341 38.04 196.115 39.0533 194.781 39.64C193.448 40.2 191.901 40.48 190.141 40.48C188.675 40.48 187.355 40.2267 186.181 39.72C185.008 39.1867 184.008 38.48 183.181 37.6C182.381 36.72 181.755 35.68 181.301 34.48C180.875 33.28 180.661 32 180.661 30.64C180.661 29.2 180.901 27.88 181.381 26.68C181.861 25.4533 182.528 24.4133 183.381 23.56C184.235 22.68 185.248 22 186.421 21.52C187.595 21.04 188.875 20.8 190.261 20.8C191.568 20.8 192.768 21.0267 193.861 21.48C194.955 21.9067 195.888 22.5467 196.661 23.4C197.461 24.2267 198.075 25.2533 198.501 26.48C198.928 27.68 199.141 29.0533 199.141 30.6V31.6H184.021C184.075 32.4 184.261 33.1733 184.581 33.92C184.928 34.64 185.368 35.28 185.901 35.84C186.435 36.3733 187.061 36.8 187.781 37.12C188.501 37.44 189.288 37.6 190.141 37.6C191.501 37.6 192.648 37.36 193.581 36.88C194.515 36.4 195.355 35.6933 196.101 34.76L198.461 36.6ZM195.781 28.96C195.728 27.36 195.208 26.08 194.221 25.12C193.235 24.16 191.875 23.68 190.141 23.68C188.408 23.68 187.008 24.16 185.941 25.12C184.875 26.08 184.235 27.36 184.021 28.96H195.781ZM203.968 25.72C203.968 24.8667 203.941 24.0667 203.888 23.32C203.834 22.5733 203.808 21.8933 203.808 21.28H206.768C206.768 21.7867 206.781 22.2933 206.808 22.8C206.834 23.3067 206.848 23.8267 206.848 24.36H206.928C207.141 23.9067 207.434 23.4667 207.808 23.04C208.208 22.6133 208.674 22.24 209.208 21.92C209.741 21.5733 210.341 21.3067 211.008 21.12C211.674 20.9067 212.394 20.8 213.168 20.8C214.394 20.8 215.448 20.9867 216.328 21.36C217.234 21.7333 217.981 22.2533 218.568 22.92C219.154 23.5867 219.581 24.4 219.848 25.36C220.141 26.2933 220.288 27.32 220.288 28.44V40H217.168V28.76C217.168 27.1867 216.821 25.9467 216.128 25.04C215.434 24.1333 214.354 23.68 212.888 23.68C211.874 23.68 210.994 23.8533 210.248 24.2C209.528 24.5467 208.928 25.04 208.448 25.68C207.994 26.32 207.648 27.08 207.408 27.96C207.194 28.84 207.088 29.8133 207.088 30.88V40H203.968V25.72ZM236.434 23.92H230.914V33.28C230.914 33.8933 230.928 34.4667 230.954 35C230.981 35.5067 231.088 35.96 231.274 36.36C231.461 36.7333 231.741 37.04 232.114 37.28C232.488 37.4933 233.021 37.6 233.714 37.6C234.168 37.6 234.634 37.5467 235.114 37.44C235.594 37.3333 236.048 37.1733 236.474 36.96L236.594 39.8C236.061 40.04 235.461 40.2133 234.794 40.32C234.154 40.4267 233.541 40.48 232.954 40.48C231.834 40.48 230.941 40.3333 230.274 40.04C229.608 39.7467 229.088 39.3333 228.714 38.8C228.341 38.2667 228.088 37.6133 227.954 36.84C227.848 36.04 227.794 35.16 227.794 34.2V23.92H223.714V21.28H227.794V15.96H230.914V21.28H236.434V23.92ZM240.576 21.28H243.696V40H240.576V21.28ZM239.856 13.96C239.856 13.3467 240.069 12.8133 240.496 12.36C240.949 11.9067 241.496 11.68 242.136 11.68C242.776 11.68 243.309 11.9067 243.736 12.36C244.189 12.8133 244.416 13.3467 244.416 13.96C244.416 14.6267 244.203 15.1733 243.776 15.6C243.349 16.0267 242.803 16.24 242.136 16.24C241.469 16.24 240.923 16.0267 240.496 15.6C240.069 15.1733 239.856 14.6267 239.856 13.96ZM259.185 23.92H254.625V40H251.505V23.92H247.425V21.28H251.505V17.08C251.505 15.9333 251.612 14.8933 251.825 13.96C252.039 13 252.399 12.1733 252.905 11.48C253.439 10.7867 254.132 10.2533 254.985 9.88C255.839 9.48 256.892 9.28 258.145 9.28C258.545 9.28 258.972 9.32 259.425 9.4C259.879 9.48 260.252 9.6 260.545 9.76L260.105 12.56C259.359 12.2933 258.652 12.16 257.985 12.16C257.185 12.16 256.559 12.3067 256.105 12.6C255.652 12.8667 255.305 13.2533 255.065 13.76C254.852 14.24 254.719 14.8267 254.665 15.52C254.639 16.2133 254.625 16.96 254.625 17.76V21.28H259.185V23.92ZM262.065 21.28H265.185V40H262.065V21.28ZM261.345 13.96C261.345 13.3467 261.559 12.8133 261.985 12.36C262.439 11.9067 262.985 11.68 263.625 11.68C264.265 11.68 264.799 11.9067 265.225 12.36C265.679 12.8133 265.905 13.3467 265.905 13.96C265.905 14.6267 265.692 15.1733 265.265 15.6C264.839 16.0267 264.292 16.24 263.625 16.24C262.959 16.24 262.412 16.0267 261.985 15.6C261.559 15.1733 261.345 14.6267 261.345 13.96ZM284.71 25.96C284.043 25.16 283.323 24.5867 282.55 24.24C281.776 23.8667 280.923 23.68 279.99 23.68C278.95 23.68 278.03 23.8667 277.23 24.24C276.43 24.5867 275.763 25.08 275.23 25.72C274.723 26.36 274.336 27.1067 274.07 27.96C273.803 28.7867 273.67 29.68 273.67 30.64C273.67 31.6 273.816 32.5067 274.11 33.36C274.43 34.1867 274.856 34.92 275.39 35.56C275.95 36.2 276.616 36.7067 277.39 37.08C278.163 37.4267 279.03 37.6 279.99 37.6C282.043 37.6 283.63 36.8267 284.75 35.28L287.07 37.48C286.163 38.52 285.096 39.28 283.87 39.76C282.643 40.24 281.35 40.48 279.99 40.48C278.55 40.48 277.23 40.24 276.03 39.76C274.83 39.28 273.803 38.6 272.95 37.72C272.123 36.84 271.47 35.8 270.99 34.6C270.536 33.4 270.31 32.08 270.31 30.64C270.31 29.2267 270.536 27.92 270.99 26.72C271.47 25.52 272.136 24.48 272.99 23.6C273.843 22.72 274.856 22.04 276.03 21.56C277.23 21.0533 278.55 20.8 279.99 20.8C281.376 20.8 282.683 21.04 283.91 21.52C285.163 22 286.256 22.7467 287.19 23.76L284.71 25.96Z" fill="#2E3E77" fill-opacity="0.6"/>
<path d="M20.4849 0L40.9698 12.0565V34.9946L20.4849 47L0 34.9946L0 12.0565L20.4849 0Z" fill="#2E3E77"/>
<rect y="23.7412" width="40.9698" height="3.01509" fill="white"/>
<rect y="29.594" width="40.9698" height="3.01509" fill="white"/>
</svg>

<svg width="122" height="25" viewBox="0 0 288 55" fill="none" xmlns="http://www.w3.org/2000/svg"><path d="M61.52 11.68h8.64c1.173 0 2.32.12 3.44.36s2.12.64 3 1.2a6.203 6.203 0 012.12 2.12c.56.88.84 1.973.84 3.28 0 1.653-.453 3.027-1.36 4.12-.88 1.067-2.08 1.827-3.6 2.28v.08c.907.08 1.747.32 2.52.72.8.373 1.48.867 2.04 1.48a6.462 6.462 0 011.36 2.16c.32.8.48 1.667.48 2.6 0 1.573-.333 2.867-1 3.88a7.249 7.249 0 01-2.56 2.44c-1.04.587-2.227 1-3.56 1.24-1.307.24-2.613.36-3.92.36h-8.44V11.68zm3.36 12h4.64c.8 0 1.573-.053 2.32-.16a6.333 6.333 0 002.08-.64 4.141 4.141 0 001.48-1.4c.373-.613.56-1.413.56-2.4 0-.88-.173-1.587-.52-2.12-.347-.56-.813-1-1.4-1.32-.56-.32-1.213-.533-1.96-.64a12.06 12.06 0 00-2.2-.2h-5v8.88zm0 13.2h5.68c.827 0 1.64-.08 2.44-.24a7.709 7.709 0 002.2-.84 4.86 4.86 0 001.6-1.52c.4-.64.6-1.413.6-2.32 0-.987-.2-1.813-.6-2.48a4.376 4.376 0 00-1.52-1.6c-.613-.4-1.333-.68-2.16-.84-.8-.16-1.627-.24-2.48-.24h-5.76v10.08zm37.995-.28c-1.12 1.44-2.346 2.453-3.68 3.04-1.333.56-2.88.84-4.64.84-1.466 0-2.786-.253-3.96-.76-1.173-.533-2.173-1.24-3-2.12-.8-.88-1.426-1.92-1.88-3.12-.426-1.2-.64-2.48-.64-3.84 0-1.44.24-2.76.72-3.96.48-1.227 1.147-2.267 2-3.12a8.847 8.847 0 013.04-2.04c1.174-.48 2.454-.72 3.84-.72 1.307 0 2.507.227 3.6.68a7.308 7.308 0 012.8 1.92c.8.827 1.414 1.853 1.84 3.08.427 1.2.64 2.573.64 4.12v1h-15.12c.054.8.24 1.573.56 2.32a7.45 7.45 0 001.32 1.92 6.18 6.18 0 001.88 1.28c.72.32 1.507.48 2.36.48 1.36 0 2.507-.24 3.44-.72.934-.48 1.774-1.187 2.52-2.12l2.36 1.84zm-2.68-7.64c-.053-1.6-.573-2.88-1.56-3.84-.986-.96-2.346-1.44-4.08-1.44-1.733 0-3.133.48-4.2 1.44-1.066.96-1.706 2.24-1.92 3.84h11.76zm24.907 7.64c-1.12 1.44-2.347 2.453-3.68 3.04-1.333.56-2.88.84-4.64.84-1.467 0-2.787-.253-3.96-.76-1.173-.533-2.173-1.24-3-2.12-.8-.88-1.427-1.92-1.88-3.12a11.37 11.37 0 01-.64-3.84c0-1.44.24-2.76.72-3.96.48-1.227 1.147-2.267 2-3.12a8.847 8.847 0 013.04-2.04c1.173-.48 2.453-.72 3.84-.72 1.307 0 2.507.227 3.6.68a7.311 7.311 0 012.8 1.92c.8.827 1.413 1.853 1.84 3.08.427 1.2.64 2.573.64 4.12v1h-15.12c.053.8.24 1.573.56 2.32.347.72.787 1.36 1.32 1.92.533.533 1.16.96 1.88 1.28.72.32 1.507.48 2.36.48 1.36 0 2.507-.24 3.44-.72.933-.48 1.773-1.187 2.52-2.12l2.36 1.84zm-2.68-7.64c-.053-1.6-.573-2.88-1.56-3.84-.987-.96-2.347-1.44-4.08-1.44s-3.133.48-4.2 1.44c-1.067.96-1.707 2.24-1.92 3.84h11.76z" fill="#2E3E77"/><path d="M144.608 16.68c-.56-.907-1.306-1.56-2.24-1.96a6.942 6.942 0 00-2.92-.64c-.746 0-1.48.093-2.2.28a6.81 6.81 0 00-1.96.84 4.278 4.278 0 00-1.36 1.48c-.346.613-.52 1.333-.52 2.16 0 .64.094 1.213.28 1.72.214.48.547.92 1 1.32.454.4 1.067.773 1.84 1.12.774.347 1.72.693 2.84 1.04 1.094.347 2.147.72 3.16 1.12 1.04.4 1.947.907 2.72 1.52a6.398 6.398 0 011.88 2.32c.48.907.72 2.053.72 3.44 0 1.413-.28 2.64-.84 3.68a7.799 7.799 0 01-2.24 2.6c-.906.667-1.96 1.16-3.16 1.48a13.335 13.335 0 01-6.2.28 12.273 12.273 0 01-2.4-.64c-.746-.32-1.453-.72-2.12-1.2a7.563 7.563 0 01-1.72-1.84l2.88-2.36a5.927 5.927 0 002.56 2.36 7.84 7.84 0 003.48.8c.72 0 1.44-.107 2.16-.32a6.86 6.86 0 002-.92 5.347 5.347 0 001.44-1.56c.374-.613.56-1.32.56-2.12 0-.88-.146-1.587-.44-2.12-.293-.56-.746-1.04-1.36-1.44-.613-.4-1.386-.76-2.32-1.08-.933-.32-2.026-.693-3.28-1.12a22.772 22.772 0 01-2.8-1.08 9.735 9.735 0 01-2.24-1.52 7.25 7.25 0 01-1.48-2.16c-.346-.853-.52-1.867-.52-3.04 0-1.36.267-2.547.8-3.56a7.323 7.323 0 012.16-2.52 9.6 9.6 0 013.08-1.56 12.374 12.374 0 013.6-.52c1.6 0 3.054.253 4.36.76 1.334.48 2.52 1.333 3.56 2.56l-2.76 2.4zm21.547 9.28c-.667-.8-1.387-1.373-2.16-1.72-.773-.373-1.627-.56-2.56-.56-1.04 0-1.96.187-2.76.56-.8.347-1.467.84-2 1.48a6.87 6.87 0 00-1.16 2.24c-.267.827-.4 1.72-.4 2.68 0 .96.147 1.867.44 2.72.32.827.747 1.56 1.28 2.2a6.229 6.229 0 002 1.52c.773.347 1.64.52 2.6.52 2.053 0 3.64-.773 4.76-2.32l2.32 2.2c-.907 1.04-1.973 1.8-3.2 2.28-1.227.48-2.52.72-3.88.72-1.44 0-2.76-.24-3.96-.72a8.76 8.76 0 01-3.08-2.04c-.827-.88-1.48-1.92-1.96-3.12-.453-1.2-.68-2.52-.68-3.96 0-1.413.227-2.72.68-3.92a9.496 9.496 0 012-3.12 8.847 8.847 0 013.04-2.04c1.2-.507 2.52-.76 3.96-.76 1.387 0 2.693.24 3.92.72a8.586 8.586 0 013.28 2.24l-2.48 2.2zm6.257-4.68h3.12V40h-3.12V21.28zm-.72-7.32a2.257 2.257 0 012.28-2.28c.64 0 1.173.227 1.6.68.453.453.68.987.68 1.6 0 .667-.213 1.213-.64 1.64-.427.427-.973.64-1.64.64-.667 0-1.213-.213-1.64-.64-.427-.427-.64-.973-.64-1.64zm26.769 22.64c-1.12 1.44-2.346 2.453-3.68 3.04-1.333.56-2.88.84-4.64.84-1.466 0-2.786-.253-3.96-.76-1.173-.533-2.173-1.24-3-2.12-.8-.88-1.426-1.92-1.88-3.12-.426-1.2-.64-2.48-.64-3.84 0-1.44.24-2.76.72-3.96.48-1.227 1.147-2.267 2-3.12a8.857 8.857 0 013.04-2.04c1.174-.48 2.454-.72 3.84-.72 1.307 0 2.507.227 3.6.68a7.303 7.303 0 012.8 1.92c.8.827 1.414 1.853 1.84 3.08.427 1.2.64 2.573.64 4.12v1h-15.12c.054.8.24 1.573.56 2.32.347.72.787 1.36 1.32 1.92.534.533 1.16.96 1.88 1.28.72.32 1.507.48 2.36.48 1.36 0 2.507-.24 3.44-.72.934-.48 1.774-1.187 2.52-2.12l2.36 1.84zm-2.68-7.64c-.053-1.6-.573-2.88-1.56-3.84-.986-.96-2.346-1.44-4.08-1.44-1.733 0-3.133.48-4.2 1.44-1.066.96-1.706 2.24-1.92 3.84h11.76zm8.187-3.24c0-.853-.027-1.653-.08-2.4a28.449 28.449 0 01-.08-2.04h2.96c0 .507.013 1.013.04 1.52.026.507.04 1.027.04 1.56h.08c.213-.453.506-.893.88-1.32.4-.427.866-.8 1.4-1.12a6.48 6.48 0 011.8-.8 7.045 7.045 0 012.16-.32c1.226 0 2.28.187 3.16.56.906.373 1.653.893 2.24 1.56.586.667 1.013 1.48 1.28 2.44.293.933.44 1.96.44 3.08V40h-3.12V28.76c0-1.573-.347-2.813-1.04-3.72-.694-.907-1.774-1.36-3.24-1.36-1.014 0-1.894.173-2.64.52-.72.347-1.32.84-1.8 1.48-.454.64-.8 1.4-1.04 2.28-.214.88-.32 1.853-.32 2.92V40h-3.12V25.72zm32.466-1.8h-5.52v9.36c0 .613.014 1.187.04 1.72.027.507.134.96.32 1.36.187.373.467.68.84.92.374.213.907.32 1.6.32.454 0 .92-.053 1.4-.16.48-.107.934-.267 1.36-.48l.12 2.84a7.102 7.102 0 01-1.8.52c-.64.107-1.253.16-1.84.16-1.12 0-2.013-.147-2.68-.44-.666-.293-1.186-.707-1.56-1.24-.373-.533-.626-1.187-.76-1.96-.106-.8-.16-1.68-.16-2.64V23.92h-4.08v-2.64h4.08v-5.32h3.12v5.32h5.52v2.64zm4.142-2.64h3.12V40h-3.12V21.28zm-.72-7.32a2.257 2.257 0 012.28-2.28c.64 0 1.173.227 1.6.68.453.453.68.987.68 1.6 0 .667-.213 1.213-.64 1.64-.427.427-.973.64-1.64.64-.667 0-1.213-.213-1.64-.64-.427-.427-.64-.973-.64-1.64zm19.329 9.96h-4.56V40h-3.12V23.92h-4.08v-2.64h4.08v-4.2c0-1.147.107-2.187.32-3.12.214-.96.574-1.787 1.08-2.48.534-.693 1.227-1.227 2.08-1.6.854-.4 1.907-.6 3.16-.6.4 0 .827.04 1.28.12.454.08.827.2 1.12.36l-.44 2.8c-.746-.267-1.453-.4-2.12-.4-.8 0-1.426.147-1.88.44-.453.267-.8.653-1.04 1.16-.213.48-.346 1.067-.4 1.76-.026.693-.04 1.44-.04 2.24v3.52h4.56v2.64zm2.88-2.64h3.12V40h-3.12V21.28zm-.72-7.32c0-.613.214-1.147.64-1.6.454-.453 1-.68 1.64-.68.64 0 1.174.227 1.6.68.454.453.68.987.68 1.6 0 .667-.213 1.213-.64 1.64-.426.427-.973.64-1.64.64-.666 0-1.213-.213-1.64-.64-.426-.427-.64-.973-.64-1.64zm23.365 12c-.667-.8-1.387-1.373-2.16-1.72-.774-.373-1.627-.56-2.56-.56-1.04 0-1.96.187-2.76.56-.8.347-1.467.84-2 1.48a6.851 6.851 0 00-1.16 2.24c-.267.827-.4 1.72-.4 2.68 0 .96.146 1.867.44 2.72.32.827.746 1.56 1.28 2.2a6.218 6.218 0 002 1.52c.773.347 1.64.52 2.6.52 2.053 0 3.64-.773 4.76-2.32l2.32 2.2c-.907 1.04-1.974 1.8-3.2 2.28-1.227.48-2.52.72-3.88.72-1.44 0-2.76-.24-3.96-.72a8.76 8.76 0 01-3.08-2.04c-.827-.88-1.48-1.92-1.96-3.12-.454-1.2-.68-2.52-.68-3.96 0-1.413.226-2.72.68-3.92a9.48 9.48 0 012-3.12 8.838 8.838 0 013.04-2.04c1.2-.507 2.52-.76 3.96-.76 1.386 0 2.693.24 3.92.72a8.593 8.593 0 013.28 2.24l-2.48 2.2z" fill="#2E3E77" fill-opacity=".6"/><path d="M20.485 0L40.97 12.056v22.939L20.485 47 0 34.995V12.057L20.485 0z" fill="#2E3E77"/><path fill="#fff" d="M0 23.741h40.97v3.015H0zM0 29.594h40.97v3.015H0z"/></svg>
